Adwaita++/apps/scalable/intellij.svg

<svg height="128" width="128" xmlns="http://www.w3.org/2000/svg" xmlns:xlink="http://www.w3.org/1999/xlink">
  <linearGradient id="e" gradientTransform="matrix(1.0015 0 0 .99993 72.09 56.015)" gradientUnits="userSpaceOnUse" x1="43.844" x2="-60" y1="234" y2="234">
    <stop offset="0" stop-color="#d5d3cf"/>
    <stop offset=".038" stop-color="#e3e2df"/>
    <stop offset=".077" stop-color="#c0bfbc"/>
    <stop offset=".923" stop-color="#c0bfbc"/>
    <stop offset=".962" stop-color="#e3e2df"/>
    <stop offset="1" stop-color="#d5d3cf"/>
  </linearGradient>
  <g transform="translate(0 -172)">
    <rect fill="url(#e)" height="48" rx="8" width="104" x="12" y="240"/>
    <g>
      <rect fill="url(#e)" height="48" rx="8" width="104" x="12" y="240"/>
      <path d="m20 10c-4.432 0-8 3.568-8 8v42 42c0 4.432 3.568 8 8 8h44 44c4.432 0 8-3.568 8-8v-42-42c0-4.432-3.568-8-8-8z" fill="#ededed" transform="translate(0 172)"/>
      <g stroke-width="2.521437" transform="matrix(1.00000001235 0 0 1.00000001235 .00000110536 171.99999948447)">
        <path d="m12 50.363281v9.636719 19.507812l28.328125 8.716797 22.533203-28.210937z" fill="#ff7800"/>
        <path d="m57.431641 110h6.568359 44c1.108 0 2.16139-.2232 3.11914-.62695s1.81997-.98794 2.54297-1.71094 1.30719-1.58522 1.71094-2.54297.62695-2.01114.62695-3.11914v-42-19.714844-5.308594l-30.287109 25.03711z" fill="#3584e4"/>
        <path d="m116 36.638672v-18.638672c0-1.108-.2232-2.161391-.62695-3.119141s-.98794-1.819968-1.71094-2.542968-1.58522-1.307188-2.54297-1.710938-2.01114-.626953-3.11914-.626953h-49.015625l11.916016 17.236328 14.023437 45.544922z" fill="#1c71d8"/>
        <path d="m12 78.589844v23.410156c0 1.108.223203 2.16139.626953 3.11914s.987938 1.81997 1.710938 2.54297 1.585218 1.30719 2.542968 1.71094 2.011141.62695 3.119141.62695h39.458984l32.716797-61.017578-54.36914 8.195312z" fill="#c061cb"/>
        <path d="m60.632812 10h-40.632812c-1.108 0-2.161391.223203-3.119141.626953s-1.819968.987938-2.542968 1.710938-1.307188 1.585218-1.710938 2.542968-.626953 2.011141-.626953 3.119141v37.160156l25.806641 2.017578 54.36914-8.195312z" fill="#e01b24"/>
      </g>
      <g transform="matrix(2.5214371 0 0 2.5214371 4.74622823055 172.74622887997)">
        <path d="m11 11h25v25h-25z" fill="#000001"/>
        <g fill="#fff">
          <path d="m14 31.5h9v1.5h-9z"/>
          <path d="m20.5 15.875v-1.875h-5v1.875h1.5v6.5h-1.5v1.875h5v-1.875h-1.341v-6.5z"/>
          <path d="m25.375 24.5c-1.875 0-2.871-1.098-3.25-1.548l1.411-1.605c.255.282.964 1.028 1.839 1.028 1.125 0 1.375-1.125 1.375-1.75v-6.625h2.25v6.625c0 .624 0 1.625-.75 2.625-.525.7-1.75 1.25-2.875 1.25z"/>
        </g>
      </g>
    </g>
  </g>
</svg>

<?xml version="1.0" encoding="UTF-8" standalone="no"?>
<svg
   xmlns:dc="http://purl.org/dc/elements/1.1/"
   xmlns:cc="http://creativecommons.org/ns#"
   xmlns:rdf="http://www.w3.org/1999/02/22-rdf-syntax-ns#"
   xmlns:svg="http://www.w3.org/2000/svg"
   xmlns="http://www.w3.org/2000/svg"
   xmlns:xlink="http://www.w3.org/1999/xlink"
   xmlns:sodipodi="http://sodipodi.sourceforge.net/DTD/sodipodi-0.dtd"
   xmlns:inkscape="http://www.inkscape.org/namespaces/inkscape"
   width="128"
   height="128"
   version="1.0"
   id="svg59"
   sodipodi:docname="Intellij idea.svg"
   inkscape:version="0.92.3 (2405546, 2018-03-11)">
  <metadata
     id="metadata63">
    <rdf:RDF>
      <cc:Work
         rdf:about="">
        <dc:format>image/svg+xml</dc:format>
        <dc:type
           rdf:resource="http://purl.org/dc/dcmitype/StillImage" />
        <dc:title></dc:title>
      </cc:Work>
    </rdf:RDF>
  </metadata>
  <sodipodi:namedview
     pagecolor="#ffffff"
     bordercolor="#666666"
     borderopacity="1"
     objecttolerance="10"
     gridtolerance="10"
     guidetolerance="10"
     inkscape:pageopacity="0"
     inkscape:pageshadow="2"
     inkscape:window-width="1920"
     inkscape:window-height="1009"
     id="namedview61"
     showgrid="false"
     inkscape:zoom="6.6272181"
     inkscape:cx="-47.212218"
     inkscape:cy="74.382034"
     inkscape:window-x="0"
     inkscape:window-y="34"
     inkscape:window-maximized="1"
     inkscape:current-layer="g57" />
  <defs
     id="defs15">
    <linearGradient
       id="a">
      <stop
         id="stop2"
         offset="0"
         stop-color="#68676b" />
      <stop
         id="stop4"
         offset=".8"
         stop-color="#424048" />
      <stop
         id="stop6"
         offset="1"
         stop-color="#241f31" />
    </linearGradient>
    <radialGradient
       id="d"
       cx="279.422"
       cy="446.483"
       r="224"
       fx="279.422"
       fy="446.483"
       gradientTransform="matrix(1.34416 .0006 -.00062 1.38763 -121.22 -718.103)"
       gradientUnits="userSpaceOnUse"
       xlink:href="#a" />
    <linearGradient
       id="e"
       x1="43.844"
       x2="-60"
       y1="234"
       y2="234"
       gradientTransform="matrix(1.0015 0 0 .99993 72.09 56.015)"
       gradientUnits="userSpaceOnUse"
       xlink:href="#b" />
    <linearGradient
       id="b">
      <stop
         id="stop11"
         offset="0"
         stop-color="#d5d3cf" />
      <stop
         id="stop13"
         offset=".038"
         stop-color="#e3e2df" />
      <stop
         id="stop15"
         offset=".077"
         stop-color="#c0bfbc" />
      <stop
         id="stop17"
         offset=".923"
         stop-color="#c0bfbc" />
      <stop
         id="stop19"
         offset=".962"
         stop-color="#e3e2df" />
      <stop
         id="stop21"
         offset="1"
         stop-color="#d5d3cf" />
    </linearGradient>
  </defs>
  <g
     id="g885"
     transform="translate(0 -172)">
    <rect
       id="rect881"
       ry="8"
       rx="8"
       y="240"
       x="12"
       height="48"
       width="104"
       fill="url(#e)" />
  </g>
  <g
     transform="translate(0 -172)"
     id="g57">
    <rect
       fill="url(#e)"
       width="104"
       height="48"
       x="12"
       y="240"
       rx="8"
       ry="8"
       id="rect17" />
    <path
       d="M 20 10 C 15.568 10 12 13.568 12 18 L 12 60 L 12 102 C 12 106.432 15.568 110 20 110 L 64 110 L 108 110 C 112.432 110 116 106.432 116 102 L 116 60 L 116 18 C 116 13.568 112.432 10 108 10 L 20 10 z"
       transform="translate(0,172)"
       style="fill:#ededed;fill-opacity:1"
       id="path19" />
    <g
       id="g864"
       transform="matrix(2.5214371,0,0,2.5214371,4.711856,171.49988)">
      <path
         style="fill:#ff7800;stroke-width:2.52143717;fill-opacity:1"
         d="M 12 50.363281 L 12 60 L 12 79.507812 L 40.328125 88.224609 L 62.861328 60.013672 L 12 50.363281 z "
         id="path830"
         transform="matrix(0.39659923,0,0,0.39659923,-1.8687184,0.1983472)" />
      <path
         style="fill:#3584e4;stroke-width:2.52143717;fill-opacity:1"
         d="M 57.431641 110 L 64 110 L 108 110 C 109.108 110 110.16139 109.7768 111.11914 109.37305 C 112.07689 108.9693 112.93911 108.38511 113.66211 107.66211 C 114.38511 106.93911 114.9693 106.07689 115.37305 105.11914 C 115.7768 104.16139 116 103.108 116 102 L 116 60 L 116 40.285156 L 116 34.976562 L 85.712891 60.013672 L 57.431641 110 z "
         id="path832"
         transform="matrix(0.39659923,0,0,0.39659923,-1.8687184,0.1983472)" />
      <path
         style="fill:#1c71d8;stroke-width:2.52143717;fill-opacity:1"
         d="M 116 36.638672 L 116 18 C 116 16.892 115.7768 15.838609 115.37305 14.880859 C 114.9693 13.923109 114.38511 13.060891 113.66211 12.337891 C 112.93911 11.614891 112.07689 11.030703 111.11914 10.626953 C 110.16139 10.223203 109.108 10 108 10 L 58.984375 10 L 70.900391 27.236328 L 84.923828 72.78125 L 116 36.638672 z "
         id="path886"
         transform="matrix(0.39659923,0,0,0.39659923,-1.8687184,0.1983472)" />
      <path
         style="fill:#c061cb;stroke-width:2.52143717;fill-opacity:1"
         d="M 12 78.589844 L 12 102 C 12 103.108 12.223203 104.16139 12.626953 105.11914 C 13.030703 106.07689 13.614891 106.93911 14.337891 107.66211 C 15.060891 108.38511 15.923109 108.9693 16.880859 109.37305 C 17.838609 109.7768 18.892 110 20 110 L 59.458984 110 L 92.175781 48.982422 L 37.806641 57.177734 L 12 78.589844 z "
         id="path836"
         transform="matrix(0.39659923,0,0,0.39659923,-1.8687184,0.1983472)" />
      <path
         style="fill:#e01b24;stroke-width:2.52143717;fill-opacity:1"
         d="M 60.632812 10 L 20 10 C 18.892 10 17.838609 10.223203 16.880859 10.626953 C 15.923109 11.030703 15.060891 11.614891 14.337891 12.337891 C 13.614891 13.060891 13.030703 13.923109 12.626953 14.880859 C 12.223203 15.838609 12 16.892 12 18 L 12 55.160156 L 37.806641 57.177734 L 92.175781 48.982422 L 60.632812 10 z "
         id="path883"
         transform="matrix(0.39659923,0,0,0.39659923,-1.8687184,0.1983472)" />
      <g
         id="g870"
         transform="translate(0.01363197,0.49430071)">
        <path
           style="fill:#000001"
           inkscape:connector-curvature="0"
           d="M 11,11 H 36 V 36 H 11 Z"
           id="path840" />
        <path
           style="fill:#ffffff"
           inkscape:connector-curvature="0"
           d="m 14,31.5 h 9 V 33 h -9 z"
           id="path842" />
        <path
           style="fill:#ffffff"
           inkscape:connector-curvature="0"
           d="M 20.5,15.875 V 14 h -5 v 1.875 H 17 v 6.5 h -1.5 v 1.875 h 5 v -1.875 h -1.341 v -6.5 z"
           id="path844" />
        <path
           style="fill:#ffffff"
           inkscape:connector-curvature="0"
           d="m 25.375,24.5 c -1.875,0 -2.871,-1.098 -3.25,-1.548 l 1.411,-1.605 c 0.255,0.282 0.964,1.028 1.839,1.028 1.125,0 1.375,-1.125 1.375,-1.75 V 14 H 29 v 6.625 c 0,0.624 0,1.625 -0.75,2.625 -0.525,0.7 -1.75,1.25 -2.875,1.25 z"
           id="path846" />
      </g>
    </g>
  </g>
</svg>
